src/img/svg/share.svg

<svg width="29" height="38" viewBox="0 0 29 38" fill="none" xmlns="http://www.w3.org/2000/svg">
<path d="M25 0.683415L8.33333 0.666748C6.5 0.666748 5 2.16675 5 4.00008V9.00008H8.33333V7.33342H25V30.6667H8.33333V29.0001H5V34.0001C5 35.8334 6.5 37.3334 8.33333 37.3334H25C26.8333 37.3334 28.3333 35.8334 28.3333 34.0001V4.00008C28.3333 2.16675 26.8333 0.683415 25 0.683415ZM11.6667 24.0001H15V12.3334H3.33333V15.6667H9.31667L0 24.9834L2.35 27.3334L11.6667 18.0167V24.0001Z" fill="white"/>
</svg>

<svg width="29" height="38" fill="none" xmlns="http://www.w3.org/2000/svg"><path d="M25 .683L8.333.667A3.343 3.343 0 0 0 5 4v5h3.333V7.333H25v23.334H8.333V29H5v5c0 1.833 1.5 3.333 3.333 3.333H25c1.833 0 3.333-1.5 3.333-3.333V4c0-1.833-1.5-3.317-3.333-3.317zM11.667 24H15V12.333H3.333v3.334h5.984L0 24.983l2.35 2.35 9.317-9.316V24z" fill="#fff"/></svg>
